!!!!SEGMENT: pl-kj--mus-ant-pract-p-1400_scacchi-marco--o-grosses-wunder-das-zu-uns-kommt-auf-erden.krn
!!!cenid: 16xx:1763
!!!COM: Scacchi, Marco
!!!COM-rismID: pe30013433
!!!CDT: ~1605-1662
!!!CNT: Italian
!!!OTL: O großes Wunder das zu uns kommt auf Erden
!!!PDT: 1646
!!!AGN: Sacred
!!!YEC: Copyright 2022 Narodowy Instytut Fryderyka Chopina (https://polishscores.org)
!!!YEM: License CC-BY-4.0 (https://creativecommons.org/licenses/by/4.0)
!!!SMS-siglum: PL-Kj
!!!SMS-shelfmark: Mus.ant.pract. P 1400
!!!SMS-shelfwork: W
!!!SMS-variant:
!!!SMS-altvar:
!!!NIFC-rismSourceID: 1001204431
!!!NIFC-rismChildID: 1001204431
!!!NIFC-islandoraID: none
!!!URL-pdf-islandora:
!!!URL-scan: https://jbc.bj.uj.edu.pl/dlibra/publication/331275/edition/316703/content, Altus (str. 12):
!!!URL-scan: https://jbc.bj.uj.edu.pl/dlibra/publication/331276/edition/316704/content Tenor (str. 14-15):
!!!URL-scan: https://jbc.bj.uj.edu.pl/dlibra/publication/331276/edition/316704/content Tenor 2 (str. 10-11):
!!!URL-scan: https://jbc.bj.uj.edu.pl/dlibra/publication/331279/edition/316707/content Basso (str. 11):
!!!URL-scan: https://jbc.bj.uj.edu.pl/dlibra/publication/331278/edition/316706/content
!!!IIIF:
!!!ONB-nifc:
!!!AIN: 1 alto 1 bass 1 soprn 2 tenor
!!!key: F
**kern	**text	**kern	**text	**kern	**text	**kern	**text	**kern	**text
*part5	*	*part4	*	*part3	*	*part2	*	*part1	*
*staff5	*	*staff4	*	*staff3	*	*staff2	*	*staff1	*
*I"Baſſo	*	*I"Tenor 2.	*	*I"Tenor	*	*I"Altus	*	*I"Cantus	*
*I'B	*	*I'T 2	*	*I'T 1	*	*I'A	*	*I'S	*
*ICvox	*	*ICvox	*	*ICvox	*	*ICvox	*	*ICvox	*
*Ibass	*	*Itenor	*	*Itenor	*	*Ialto	*	*Isoprn	*
*clefF4	*	*clefC4	*	*clefC4	*	*clefC3	*	*clefC1	*
*k[b-]	*	*k[b-]	*	*k[b-]	*	*k[b-]	*	*k[b-]	*
*F:	*	*F:	*	*F:	*	*F:	*	*F:	*
*M2/1	*	*M2/1	*	*M2/1	*	*M2/1	*	*M2/1	*
*met(C|)	*	*met(C|)	*	*met(C|)	*	*met(C|)	*	*met(C|)	*
=1-	=1-	=1-	=1-	=1-	=1-	=1-	=1-	=1-	=1-
!LO:TX:b:t=O Groſſes wunder	!	!LO:TX:b:t=O Groſſer&colon;\nO chiome	!	!LO:TX:b:t=O groſſes wunder	!	!LO:TX:b:t=O Groſſes&colon;	!	!LO:TX:t=P:problem:błędnie zapisane źródła stron. Tenor 2 w Vox 5	!
00r	.	00r	.	0r	.	0r	.	4r	.
.	.	.	.	.	.	.	.	4f/	Groſ-
.	.	.	.	.	.	.	.	4.g/	-ſes
.	.	.	.	.	.	.	.	8g/	groſ-
.	.	.	.	.	.	.	.	4.a\	-ſes
.	.	.	.	.	.	.	.	8cc\	wũ(n)-
.	.	.	.	.	.	.	.	4b-\	-der
.	.	.	.	.	.	.	.	8b-\	d(as)
.	.	.	.	.	.	.	.	8b-\	zu
=2-	=2-	=2-	=2-	=2-	=2-	=2-	=2-	=2-	=2-
.	.	.	.	2r	.	1r	.	8a\	vns
.	.	.	.	.	.	.	.	8g/	kom-
.	.	.	.	.	.	.	.	8g/	-pt
.	.	.	.	.	.	.	.	8g/	auff`
.	.	.	.	4r	.	.	.	2g/	Er-
.	.	.	.	4c\	O	.	.	.	.
.	.	.	.	8r	.	4r	.	2f/	-den /
.	.	.	.	8d\	O	.	.	.	.
.	.	.	.	8d\	wah-	4.f\	O	.	.
.	.	.	.	8c\	-rer	.	.	.	.
!	!	!	!	!LO:N:acc=#	!	!	!	!	!
.	.	.	.	4.Bn\	Got-	.	.	2r	.
.	.	.	.	.	.	8g\	O	.	.
.	.	.	.	.	.	8g\	wa-	.	.
.	.	.	.	8B\	-tes	8f\	-rer	.	.
=3-	=3-	=3-	=3-	=3-	=3-	=3-	=3-	=3-	=3-
0r	.	0r	.	8c\	G(ohn)	4.e\	Got-	0r	.
.	.	.	.	8c\	tompſt	.	.	.	.
.	.	.	.	8c\	Menſch	.	.	.	.
.	.	.	.	8c\	zu	8e\	-tes	.	.
.	.	.	.	4A/	wer-	8f\	G(ohn)	.	.
.	.	.	.	.	.	8f\	tompſt	.	.
.	.	.	.	8A/	-den	8f\	Menſch	.	.
.	.	.	.	8A/	auff	8e\	zu	.	.
*	*	*	*	*custos:B-	*	*	*	*	*
!	!	!	!	!LO:LB:g=original	!	!	!	!	!
.	.	.	.	4B-y\	Er-	4d\	wer-	.	.
.	.	.	.	8B-\	-den	8d\	-de(n)	.	.
.	.	.	.	8B-\	tompſt	8d\	auff	.	.
*	*	*	*	*	*	*custos:e	*	*	*
!	!	!	!	!	!	!LO:LB:g=original	!	!	!
.	.	.	.	8G/	Menſch	8e-X\	Er-	.	.
.	.	.	.	8A/	zu	8d\	.	.	.
.	.	.	.	2B-\	wer-	8d\	.	.	.
.	.	.	.	.	.	16c/	.	.	.
.	.	.	.	.	.	16B-/	.	.	.
=4-	=4-	=4-	=4-	=4-	=4-	=4-	=4-	=4-	=4-
4r	.	2r	.	.	.	2c/	.	2r	.
4FF/	Dein	.	.	4A/)	.	.	.	.	.
4BB-/	lieb	4F/	dein	2B-\	-de(n)	2d\	-den.	4r	.
4GG/	al-	4B-\	lieb	.	.	.	.	4b-\	dein
*	*	*	*	*	*	*	*	*custos:ee-	*
!	!	!	!	!	!	!	!	!LO:LB:g=original	!
4C/	-lein	4G/	al-	00r	.	1r	.	4.ee-X\	lieb
8C/	groſ-	4c\	-lein	.	.	.	.	.	.
8C/	-ſer	.	.	.	.	.	.	8cc\	al-
4D/	Gott	8A/	groſ-	.	.	.	.	4ff\	-lein
.	.	8A/	-ſer	.	.	.	.	.	.
4BB-/	dich	4d\	Gott	.	.	.	.	8ff\	groſ-
.	.	.	.	.	.	.	.	8dd\	-ſer
=5-	=5-	=5-	=5-	=5-	=5-	=5-	=5-	=5-	=5-
4E-X\	zwin-	4B-\	dich	.	.	4r	.	4ee-X\	Gott
8C/	-get	2c\	-zwin-	.	.	4c/	O	4ee-\	dich
8C/	O	.	.	.	.	.	.	.	.
4F\	Gott	.	.	.	.	4.d\	groſ-	2dd\	zwin-
4G\	dich	4Bn\	.	.	.	.	.	.	.
.	.	.	.	.	.	8d\	-ſes	.	.
*custos:C	*	*	*	*	*	*	*	*	*
!LO:PB:g=original	!	!	!	!	!	!	!	!	!
2C/	zwin-	2c\	-get	.	.	4.eny\	groſ-	2cc\	-get
.	.	.	.	.	.	8g\	-ſes	.	.
2D/	-get	2r	.	.	.	4f\	wun-	2r	.
.	.	.	.	.	.	8f\	-d(er)	.	.
.	.	.	.	.	.	8f\	d(as)	.	.
=6-	=6-	=6-	=6-	=6-	=6-	=6-	=6-	=6-	=6-
2r	.	1r	.	.	.	8e\	du	0r	.
.	.	.	.	.	.	8d\	zu	.	.
.	.	.	.	.	.	8d\	vns	.	.
.	.	.	.	.	.	8d\	auff	.	.
4r	.	.	.	.	.	2d\	Er-	.	.
4G\	O	.	.	.	.	.	.	.	.
*	*	*	*	*	*	*custos:c	*	*	*
!	!	!	!	!	!	!LO:LB:g=original	!	!	!
8r	.	4r	.	0r	.	2c/	-den	.	.
8A\	O	.	.	.	.	.	.	.	.
8A\	wah-	4c\	O	.	.	.	.	.	.
8G\	-rer	.	.	.	.	.	.	.	.
!LO:TX:b:t=P:problem:# below	!	!	!	!	!	!	!	!	!
4.F#X\	Got-	8r	.	.	.	2r	.	.	.
.	.	8d\	o	.	.	.	.	.	.
.	.	8d\	wah-	.	.	.	.	.	.
8F#\	-tes	8c\	-rer	.	.	.	.	.	.
*	*	*custos:B	*	*	*	*	*	*	*
!	!	!LO:LB:g=original	!	!	!	!	!	!	!
=7-	=7-	=7-	=7-	=7-	=7-	=7-	=7-	=7-	=7-
!	!	!LO:N:acc=#	!	!	!	!	!	!	!
8G\	G(ohn)	4.Bn\	Got-	.	.	0r	.	4r	.
8G\	to(m)pſt	.	.	.	.	.	.	.	.
*	*	*	*	*	*	*	*	*	*ij
8G\	Menſch	.	.	.	.	.	.	4d/	dein
8Fny\	zu	8B\	-tes	.	.	.	.	.	.
4Eny\	wer-	8c\	Gohn	.	.	.	.	4g/	lieb
.	.	8c\	tomp(ſ)t	.	.	.	.	.	.
8E\	-de(n)	8c\	Menſch	.	.	.	.	4e/	al-
8E\	auff	8B\	zu	.	.	.	.	.	.
4F\	er-	4A/	wer-	2r	.	.	.	4a\	-lein
8.F\	-de(n)	8.A/	-den	.	.	.	.	8f/	groſ-
.	.	.	.	.	.	.	.	8f/	-ſer
16E\	to(m)pſt	16G/	he-	.	.	.	.	.	.
*custos:D	*	*	*	*	*	*	*	*	*
!LO:LB:g=original	!	!	!	!	!	!	!	!	!
8D\	Me(n)ſch	4F/	-rad	4r	.	.	.	4b-\	Gott
8E\	zu	.	.	.	.	.	.	.	.
(<2F\	wer-	8D/	auff	4F/	O	.	.	4a\	dich
.	.	8D/	die	.	.	.	.	.	.
=8-	=8-	=8-	=8-	=8-	=8-	=8-	=8-	=8-	=8-
.	.	(>4BB-/	Er-	4.G/	groſ-	2r	.	2g/	zwin-
4E\)	.	4C/)	.	.	.	.	.	.	.
.	.	.	.	8G/	-ſes	.	.	.	.
2F\	-den	2F/	-den	4.A/	groſ-	4r	.	2f/	-get
.	.	.	.	.	.	4c/	O	.	.
.	.	.	.	8c\	-ſes	.	.	.	.
*	*	*	*	*	*	*	*	*custos:f	*
!	!	!	!	!	!	!	!	!LO:LB:g=original	!
0r	.	0r	.	4B-\	wun-	4.d\	groſ-	4r	.
*	*	*	*	*	*	*	*	*	*Xij
.	.	.	.	8B-\	-der	.	.	4f/	O
.	.	.	.	8d\	d(as)	8d\	-ſes	.	.
.	.	.	.	8c\	du	4.e\	groſ-	4.g/	groſ-
.	.	.	.	8c\	zu	.	.	.	.
.	.	.	.	8c\	vns	.	.	.	.
.	.	.	.	8B-\	auff	8g\	-ſes	8g/	-ſes
*	*	*	*	*custos:A	*	*	*	*	*
!	!	!	!	!LO:LB:g=original	!	!	!	!	!
=9-	=9-	=9-	=9-	=9-	=9-	=9-	=9-	=9-	=9-
.	.	.	.	4.A/	Er-	4f\	win-	4.a\	groſ-
.	.	.	.	.	.	8f\	-der	.	.
.	.	.	.	16G/	.	8e\	das	8cc\	-ſes
.	.	.	.	16A/	.	.	.	.	.
.	.	.	.	2B-\	.	8d\	du	4b-\	wun-
.	.	.	.	.	.	8e\	zu	.	.
.	.	.	.	.	.	8f\	vns	8b-\	-der
.	.	.	.	.	.	8d\	auff	8b-\	das
*	*	*custos:c	*	*	*	*	*	*	*
!	!	!LO:PB:g=original	!	!	!	!	!	!	!
1r	.	2r	.	1c	-den	4e\	Er-	8a\	du
.	.	.	.	.	.	.	.	8a\	zu
.	.	.	.	.	.	2f\	.	8g/	vns
.	.	.	.	.	.	.	.	8f/	auff
.	.	4r	.	.	.	.	.	4.g/	Er-
.	.	4c\	O	.	.	4e\	.	.	.
.	.	.	.	.	.	.	.	8a\	.
*	*	*	*	*	*	*custos:f	*	*	*
!	!	!	!	!	!	!LO:LB:g=original	!	!	!
=10-	=10-	=10-	=10-	=10-	=10-	=10-	=10-	=10-	=10-
2r	.	8r	.	1r	.	4f\	-den	4b-\	.
.	.	8d\	O	.	.	.	.	.	.
.	.	8d\	wah-	.	.	4f\	O	4a\	-den
.	.	8c\	-rer	.	.	.	.	.	.
4r	.	4.Bn\	Got-	.	.	8r	.	2r	.
.	.	.	.	.	.	8g\	O	.	.
4GG/	dein	.	.	.	.	8g\	wah-	.	.
.	.	8B\	-tes	.	.	8f\	-rer	.	.
4C/	lieb	8c\	G(ohn)	4r	.	4.e\	Got-	1r	.
.	.	8c\	tómpft	.	.	.	.	.	.
4AA/	al-	8c\	M(enſch)	4C/	dein	.	.	.	.
.	.	8c\	zu	.	.	8e\	-tes	.	.
4D/	-lein	4A/	wer-	4F/	lieb	8f\	Gohn	.	.
.	.	.	.	.	.	8f\	tompft	.	.
8BB-/	groſ-	8B\	-de(n)	4D/	al-	8f\	Menſch	.	.
8BB-/	-ſer	8B\	auff	.	.	8f\	zu	.	.
=11-	=11-	=11-	=11-	=11-	=11-	=11-	=11-	=11-	=11-
4E-X\	Gott	4B-y\	Er-	4G/	-lein	4g\	wer-	0r	.
8C/	fro(h-	4c\	-de(n)	8E/	groſ-	8g\	-den	.	.
8C/	-r)er	.	.	8c\	-ſer	8g\	auff	.	.
*	*	*	*	*	*	*custos:f	*	*	*
!	!	!	!	!	!	!LO:LB:g=original	!	!	!
4D/	Gott	4r	.	4A/	Gott	(<8f\	Er-	.	.
.	.	.	.	.	.	8d\)	.	.	.
4AA/	dich	4F/	O	4c\	dich	2f\	.	.	.
2C/	zwin-	4.G/	groſ-	2c\	zwin-	.	.	.	.
.	.	.	.	.	.	4e\	.	.	.
.	.	8G/	-ſes	.	.	.	.	.	.
*	*	*custos:A	*	*	*	*	*	*	*
!	!	!LO:LB:g=original	!	!	!	!	!	!	!
2FF/	-g(et)	4.A/	groſ-	2c\	-get	2f\	-den	.	.
.	.	8c\	-ſes	.	.	.	.	.	.
=12-	=12-	=12-	=12-	=12-	=12-	=12-	=12-	=12-	=12-
1r	.	4B-\	tompft	1r	.	0r	.	1r	.
.	.	8B-\	wun-	.	.	.	.	.	.
.	.	8B-\	-der	.	.	.	.	.	.
.	.	8A/	d(as)	.	.	.	.	.	.
.	.	8A/	du	.	.	.	.	.	.
.	.	8G/	zu	.	.	.	.	.	.
.	.	8G/	vns	.	.	.	.	.	.
*	*	*	*	*	*	*	*	*custos:c	*
!	!	!	!	!	!	!	!	!LO:LB:g=original	!
4r	.	2G/	Er-	2r	.	.	.	4r	.
4C/	O	.	.	.	.	.	.	4c/	dein
4.D/	groſ-	2F/	-den	4F/	dein	.	.	4f/	lieb
.	.	.	.	4B-\	lieb	.	.	4d/	al-
8D/	-ſes	.	.	.	.	.	.	.	.
*custos:E	*	*	*	*custos:G	*	*	*	*	*
!LO:LB:g=original	!	!	!	!LO:LB:g=original	!	!	!	!	!
=13-	=13-	=13-	=13-	=13-	=13-	=13-	=13-	=13-	=13-
4.Eny\	groſ-	0r	.	4G/	al-	1r	.	4g/	-lein
.	.	.	.	4c\	-lein	.	.	8g/	groſ-
8G\	-ſes	.	.	.	.	.	.	8g/	-ſer
4F\	wun-	.	.	8c\	groſ-	.	.	4.a\	GOtt
.	.	.	.	8A/	-ſer	.	.	.	.
8F\	-der	.	.	4.d\	Gott	.	.	.	.
8F\	d(as)	.	.	.	.	.	.	8f/	hier
8.E\	du	.	.	.	.	2r	.	4.g/	zu
.	.	.	.	8c\	dich	.	.	.	.
16D/	zu	.	.	.	.	.	.	.	.
8E\	vns	.	.	2c\	zwin-	.	.	.	.
8C/	auff	.	.	.	.	.	.	8e/	dich
2G\	er-	.	.	.	.	4r	.	2d/	zwin-
.	.	.	.	(4Bn\	.	4g\	O	.	.
=14-	=14-	=14-	=14-	=14-	=14-	=14-	=14-	=14-	=14-
2C/	-de(n)	4r	.	2c\)	-get	8r	.	2c/	-get
.	.	.	.	.	.	8e\	O	.	.
.	.	4c\	O	.	.	8e\	wah-	.	.
.	.	.	.	.	.	8e\	-rer	.	.
2r	.	8r	.	2r	.	4.f\	Got-	2r	.
.	.	8d\	O	.	.	.	.	.	.
.	.	8d\	wa-	.	.	.	.	.	.
.	.	8c\	-(h)rer	.	.	8e\	-tes	.	.
*	*	*	*	*	*	*	*	*custos:c	*
!	!	!	!	!	!	!	!	!LO:LB:g=original	!
4r	.	4.Bn\	Got-	4r	.	8d\	Gohn	2r	.
.	.	.	.	.	.	8d\	tompft	.	.
4GG/	dein	.	.	4G/	O	8d\	Me(n)ſch	.	.
.	.	8B\	-tes	.	.	8g\	zu	.	.
*	*	*custos:c	*	*	*	*	*	*	*
!	!	!LO:LB:g=original	!	!	!	!	!	!	!
4C/	lieb	8c\	Gohn	8r	.	4e\	wer-	4r	.
.	.	8c\	tompft	8A/	O	.	.	.	.
4AA/	al-	8c\	Me(n)ſch	8A/	wah-	8e\	-de(n)	4c/	dein
.	.	8B\	zu	8G/	-rer	8e\	auff	.	.
*	*	*	*	*	*	*custos:d	*	*	*
!	!	!	!	!	!	!LO:LB:g=original	!	!	!
=15-	=15-	=15-	=15-	=15-	=15-	=15-	=15-	=15-	=15-
4D/	-lein	4A/	wer-	4.F/	Got-	4d\	Er-	4f/	lieb
8BB-/	groſ-	8B-y\	-den	.	.	8f\	-den	4d/	al-
8BB-/	-ſer	8B-\	auf	8F/	-tes	8f\	auff	.	.
4E-X\	Gott	4B-\	Er-	8G/	Gohn	4.e-X\	Er-	4g/	-lein
.	.	.	.	8G/	tompft	.	.	.	.
4C/	dich	4c\	-den	8G/	Menſch	.	.	8g/	groſ-
.	.	.	.	8G/	zu	8d\	.	8g/	-ſer
*	*	*	*	*custos:A	*	*	*	*	*
!	!	!	!	!LO:LB:g=original	!	!	!	!	!
4F\	zwin-	2r	.	4A/	wer-	8c/	.	4f/	Gott
.	.	.	.	.	.	16c\	.	.	.
.	.	.	.	.	.	16e-\	.	.	.
4D/	-get	.	.	8A/	-den	2f\	.	8.a\	groſ-
.	.	.	.	8B-y\	auff	.	.	.	.
.	.	.	.	.	.	.	.	16a\	-ſer
2r	.	4r	.	2c\	Er-	.	.	8g/	Gottt
.	.	.	.	.	.	.	.	8f/	dich
.	.	4C/	Dein	.	.	4e-\	.	4g/	zwin-
*custos:FF	*ij	*	*	*	*	*	*	*	*
!LO:LB:g=original	!	!	!	!	!	!	!	!	!
=16-	=16-	=16-	=16-	=16-	=16-	=16-	=16-	=16-	=16-
4r	.	2F/	lieb	2c\	-den	8f\	-den	2a\	-get
.	.	.	.	.	.	8c/	dein	.	.
4FF/	dein	.	.	.	.	4f\	lieb	.	.
*	*	*	*ij	*	*	*	*	*	*
4BB-/	lieb	4F/	Dein	2r	.	4d\	al-	4r	.
4GG/	al-	4B-\	lieb	.	.	4g\	-lein	4b-\	dein
*	*	*	*Xij	*	*	*	*	*	*
4C/	-lein	4G/	al-	4E/	dein	4.eny\	groſ-	4cc\	lieb
8AA/	groſ-	4c\	-lein	4A/	lieb	.	.	4cc\	al-
8AA/	-ſer	.	.	.	.	8e\	-ſer	.	.
*	*	*	*	*	*	*custos:f	*	*custos:dd	*
!	!	!	!	!	!	!LO:PB:g=original	!	!LO:LB:g=original	!
4D/	Gott	8A/	groſ-	4F/	al-	8f\	Gott	4dd\	-lein
.	.	8A/	-ſer	.	.	8f\	dich	.	.
*	*	*	*ij	*	*	*	*	*	*
4BB-/	dich	8d\	groſ-	4B-\	-lein	8g\	hir	8dd\	groſ-
.	.	8D/	-ſer	.	.	8f\	zu	8dd\	-ſer
*	*	*custos:E	*Xij	*	*	*	*	*	*
!	!	!LO:LB:g=original	!	!	!	!	!	!	!
=17-	=17-	=17-	=17-	=17-	=17-	=17-	=17-	=17-	=17-
1C	zwin-	4E/	Gott	8G/	groſ-	8e\	zwin-	4cc\	GOtt
.	.	.	.	8G/	-ſer	8c/	.	.	.
.	.	4C/	dich	8.A/	Gott	2f\	.	4b-\	dich
.	.	.	.	16B-\	dich	.	.	.	.
.	.	2G/	zwin-	2c\	zwin-	.	.	2g/	zwin-
.	.	.	.	.	.	4e\	.	.	.
1FF	-get	1F	-get	1c	-get	1f	-get	1a	-get
=18-	=18-	=18-	=18-	=18-	=18-	=18-	=18-	=18-	=18-
*M3/2	*Xij	*M3/2	*	*M3/2	*	*M3/2	*	*M3/2	*
*	*	*	*	*met(3)	*	*	*	*	*
!	!	!LO:TX:b:t=9	!	!	!	!	!	!	!
0.r	.	00.r	.	00.r	.	4c/	d(eß)	2r	.
.	.	.	.	.	.	4c/	ſich	.	.
.	.	.	.	.	.	2d\	frewt	2r	.
.	.	.	.	.	.	4d\	dei-	4f/	d(eß)
.	.	.	.	.	.	4d\	-ne	4f/	ſich
=19-	=19-	=19-	=19-	=19-	=19-	=19-	=19-	=19-	=19-
.	.	.	.	.	.	4e\	Chri-	2g/	frewt
.	.	.	.	.	.	4f\	.	.	.
.	.	.	.	.	.	4g\	.	4g/	dei-
.	.	.	.	.	.	4e\	.	4g/	-ne
.	.	.	.	.	.	4f\	.	4a\	Chri-
.	.	.	.	.	.	4g\	.	4b-\	.
*	*	*	*	*	*	*custos:a	*	*	*
!	!	!	!	!	!	!LO:LB:g=original	!	!	!
=20-	=20-	=20-	=20-	=20-	=20-	=20-	=20-	=20-	=20-
2r	.	.	.	.	.	4a\	.	4cc\	.
.	.	.	.	.	.	8g\	.	4a\	.
.	.	.	.	.	.	8f\	.	.	.
2r	.	.	.	.	.	4g\	.	4b-\	.
.	.	.	.	.	.	4f\	.	4a\	.
4AA/	deß	.	.	.	.	2.f\	-ſten-	4a\	.
4AA/	ſich	.	.	.	.	.	.	8g/	.
.	.	.	.	.	.	.	.	8f/	.
*	*	*	*	*	*	*	*	*custos:g	*
!	!	!	!	!	!	!	!	!LO:LB:g=original	!
=21-	=21-	=21-	=21-	=21-	=21-	=21-	=21-	=21-	=21-
2BB-/	frewt	.	.	.	.	.	.	2.g/	.
.	.	.	.	.	.	8e\	.	.	.
.	.	.	.	.	.	8d\	.	.	.
4C/	dei-	.	.	.	.	2e\	.	.	.
4C/	-ne	.	.	.	.	.	.	4a\	.
4D/	Chri-	.	.	.	.	2f\	-heit	2b-\	-ſten-
4E\	.	.	.	.	.	.	.	.	.
=22-	=22-	=22-	=22-	=22-	=22-	=22-	=22-	=22-	=22-
!	!	!	!	!LO:TX:t=P:problem: VHV nie wyświetla pauzy	!	!	!	!	!
4F\	.	00.r	.	1.r	.	0.r	.	2a\	-heit
4D/	.	.	.	.	.	.	.	.	.
4E\	.	.	.	.	.	.	.	2r	.
4F\	.	.	.	.	.	.	.	.	.
4G\	.	.	.	.	.	.	.	2r	.
4A\	.	.	.	.	.	.	.	.	.
*	*	*	*	*custos:c	*	*	*	*	*
!	!	!	!	!LO:LB:g=original	!	!	!	!	!
=23-	=23-	=23-	=23-	=23-	=23-	=23-	=23-	=23-	=23-
1G	.	.	.	2c\	dir	.	.	0.r	.
.	.	.	.	2B-\	Gott	.	.	.	.
2F#X\	-ſten-	.	.	2A/	lob-	.	.	.	.
=24-	=24-	=24-	=24-	=24-	=24-	=24-	=24-	=24-	=24-
2G\	-heit	.	.	4G/	-ſin-	2r	.	.	.
.	.	.	.	4E/	-get	.	.	.	.
2r	.	.	.	4F/	ißt	2r	.	.	.
.	.	.	.	4G/	vnd	.	.	.	.
2r	.	.	.	4A/	in	2f\	Dir	.	.
.	.	.	.	4B-\	all	.	.	.	.
=25-	=25-	=25-	=25-	=25-	=25-	=25-	=25-	=25-	=25-
!	!	!	!	!	!	!LO:N:vis=4	!	!	!
00.r	.	.	.	2c\	E-	2e\	Gott	2cc\	Dir
.	.	.	.	4G/	-wig-	2d\	lob-	2b-\	GOtt
.	.	.	.	4G/	-ſeit	.	.	.	.
.	.	.	.	4A/	in	4c/	-ſin-	2a\	lob-
.	.	.	.	4B-\	all	4d\	-get	.	.
=26-	=26-	=26-	=26-	=26-	=26-	=26-	=26-	=26-	=26-
.	.	1.r	.	2c\	e-	4e\	ißt	4g/	-ſin-
.	.	.	.	.	.	4c/	vn(d)	4e/	-get
.	.	.	.	2B-\	-wig-	4d\	in	4f/	ißt
.	.	.	.	.	.	4e\	all	4g/	vnd
.	.	.	.	2A/	.	4f\	E-	4.a\	in
.	.	.	.	.	.	4e\	-wig-	.	.
.	.	.	.	.	.	.	.	8b-\	E-
*	*	*	*	*	*	*custos:e	*	*	*
!	!	!	!	!	!	!LO:LB:g=original	!	!	!
=27-	=27-	=27-	=27-	=27-	=27-	=27-	=27-	=27-	=27-
.	.	4E/	deß	2G/	-ſeit	4e\	.	1cc	.
.	.	4E/	ſich	.	.	8d\	.	.	.
.	.	.	.	.	.	8c/	.	.	.
.	.	2F/	freut	2r	.	2d\	.	.	.
.	.	4G/	dei-	2r	.	4d\	-ſeit	2bn\	-wig-
.	.	4G/	-ne	.	.	4d\	ißt	.	.
=28-	=28-	=28-	=28-	=28-	=28-	=28-	=28-	=28-	=28-
.	.	4A/	Chri-	1.r	.	4c/	vnd	2cc\	-ſeit
.	.	4B-\	.	.	.	4d\	in	.	.
.	.	4c\	.	.	.	4e\	all	2r	.
.	.	4A/	.	.	.	4f\	E-	.	.
.	.	4B-\	.	.	.	4d\	.	2r	.
.	.	4G/	.	.	.	4e\	.	.	.
*custos:F	*	*	*	*	*	*	*	*	*
!LO:LB:g=original	!	!	!	!	!	!	!	!	!
=29-	=29-	=29-	=29-	=29-	=29-	=29-	=29-	=29-	=29-
2Fny\	dir	1c	.	2A/	dir	4f\	.	0.r	.
.	.	.	.	.	.	8e\	.	.	.
.	.	.	.	.	.	8d\	.	.	.
2E\	Gott	.	.	2G/	Gott	2c/	.	.	.
2D/	lob-	2Bn\	-ſten-	2F/	lob-	2d\	-wig-	.	.
*	*	*	*	*custos:E	*	*	*	*	*
!	!	!	!	!LO:LB:g=original	!	!	!	!	!
=30-	=30-	=30-	=30-	=30-	=30-	=30-	=30-	=30-	=30-
4C/	-ſin-	2c\	-heit	4E/	-ſin-	2e\	-ſeit	.	.
4AA/	-get	.	.	4C/	-get	.	.	.	.
4BB-/	ißt	2r	.	4D/	ißt	2r	.	.	.
4C/	v(nd)	.	.	4E/	vnd	.	.	.	.
4D/	in	2r	.	4F/	in	2r	.	.	.
4E\	all	.	.	4G/	all	.	.	.	.
*	*	*	*	*	*	*	*	*custos:cc	*
!	!	!	!	!	!	!	!	!LO:PB:g=original	!
=31-	=31-	=31-	=31-	=31-	=31-	=31-	=31-	=31-	=31-
1F	e-	1.r	.	4A/	E-	1.r	.	2cc\	Dir
.	.	.	.	8G/	.	.	.	.	.
.	.	.	.	8F/	.	.	.	.	.
!	!	!	!	!	!	!	!	!LO:N:vis=4	!
.	.	.	.	1G	-wig-	.	.	2b-y\	GOtt
2E\	-wig-	.	.	.	.	.	.	2g/	lob-
=32-	=32-	=32-	=32-	=32-	=32-	=32-	=32-	=32-	=32-
2F\	-ſeit	2A/	dir	2F/	-ſeit	2f\	Dir	4a\	-ſin-
.	.	.	.	.	.	.	.	4f/	-get
2r	.	2c\	Gott	2r	.	2e\	Gott	4g/	ißt
.	.	.	.	.	.	.	.	4e/	vnd
2r	.	2B-y\	lob-	2r	.	2d\	lob-	4f/	in
.	.	.	.	.	.	.	.	4g/	E-
*	*	*custos:A	*	*	*	*custos:c	*	*	*
!	!	!LO:LB:g=original	!	!	!	!LO:LB:g=original	!	!	!
=33-	=33-	=33-	=33-	=33-	=33-	=33-	=33-	=33-	=33-
0.r	.	4A/	-ſin-	1.r	.	4c/	-ſin-	2a\	-wig-
.	.	4F/	-get	.	.	4A/	-get	.	.
.	.	4G/	ißt	.	.	4B-/	ißt	2.g/	-ſeit
.	.	4A/	vnd	.	.	4c/	vnd	.	.
.	.	4B-\	in	.	.	4d\	in	.	.
.	.	4G/	all	.	.	4e\	all	4g/	ißt
=34-	=34-	=34-	=34-	=34-	=34-	=34-	=34-	=34-	=34-
.	.	2c\	.	4A/	deß	1f	E-	4f/	vnd
.	.	.	.	4A/	ſich	.	.	4f/	in
.	.	2d\	in	2B-\	frewt	.	.	4g/	a(.)
.	.	.	.	.	.	.	.	4g/	E-
.	.	2.c\	All	4c\	die	2e\	-wig-	2g/	-wig-
.	.	.	.	4c\	Chri-	.	.	.	.
=35-	=35-	=35-	=35-	=35-	=35-	=35-	=35-	=35-	=35-
4D/	deß	.	.	2d\	-ſten-	2f\	-ſeit	2f/	-ſeit
4D/	ſich	4B-\	e-	.	.	.	.	.	.
!	!	!	!	!\	!	!	!	!	!
2E\	frewt	2B-\	-wig-	1c	-heit	2r	.	4g/	deß
.	.	.	.	.	.	.	.	4g/	ſich
4F\	dei-	2A/	-ſeit	.	.	2r	.	2a\	freiv-
4F\	-ne	.	.	.	.	.	.	.	.
*	*	*	*	*custos:d	*	*	*	*custos:b-	*
!	!	!	!	!LO:LB:g=original	!	!	!	!LO:LB:g=original	!
=36-	=36-	=36-	=36-	=36-	=36-	=36-	=36-	=36-	=36-
4G\	Chri-	00.r	.	1.r	.	0.r	.	4b-\	-et
4A\	.	.	.	.	.	.	.	4cc\	dein
4B-\	.	.	.	.	.	.	.	4dd\	Chri-
4G\	.	.	.	.	.	.	.	4b-\	.
4A\	.	.	.	.	.	.	.	4cc\	.
4G\	.	.	.	.	.	.	.	4b-\	.
=37-	=37-	=37-	=37-	=37-	=37-	=37-	=37-	=37-	=37-
1G	.	.	.	2d\	vnd	.	.	4b-\	.
.	.	.	.	.	.	.	.	8a\	.
.	.	.	.	.	.	.	.	8g/	.
.	.	.	.	2c\	dir	.	.	1a	-ſten-
!LO:TX:b:t=P:problem:# below	!	!	!	!	!	!	!	!	!
2F#X\	-ſten-	.	.	2A/	lob-	.	.	.	.
=38-	=38-	=38-	=38-	=38-	=38-	=38-	=38-	=38-	=38-
2G\	-heit	.	.	4B-\	-ſin-	2g\	Dir	2g/	-heit
.	.	.	.	4G/	-get	.	.	.	.
2r	.	.	.	4A/	ist	2f\	Gott	2r	.
.	.	.	.	4B-\	vnd	.	.	.	.
2r	.	.	.	4c\	in	2e\	lob-	2r	.
.	.	.	.	4c\	all	.	.	.	.
*custos:F	*	*	*	*	*	*	*	*	*
!LO:LB:g=original	!	!	!	!	!	!	!	!	!
=39-	=39-	=39-	=39-	=39-	=39-	=39-	=39-	=39-	=39-
2Fny\	dir	.	.	1c	E-	4f\	-ſin-	2a\	dir
.	.	.	.	.	.	8e\	.	.	.
.	.	.	.	.	.	8d\	.	.	.
2E\	Gott	.	.	.	.	2c/	.	2.g/	GOtt
2D/	lob-	.	.	2Bn\	-wig-	2d\	.	.	.
.	.	.	.	.	.	.	.	4f/	lob-
=40-	=40-	=40-	=40-	=40-	=40-	=40-	=40-	=40-	=40-
4C/	-ſin-	1.r	.	2c\	-ſeit	2e\	-get	4e/	-ſin-
4AA/	-get	.	.	.	.	.	.	4c/	-get
4BB-/	ißt	.	.	2r	.	2r	.	4d/	ißt
4C/	v(nd)	.	.	.	.	.	.	4e/	vnd
4D/	in	.	.	2r	.	2r	.	4f/	in
4E\	all	.	.	.	.	.	.	4g/	all
=41-	=41-	=41-	=41-	=41-	=41-	=41-	=41-	=41-	=41-
1F	e-	2c\	dir	00.r	.	1.r	.	4a\	E-
.	.	.	.	.	.	.	.	4b-\	.
.	.	2A/	Gott	.	.	.	.	2.cc\	.
2E\	-wig-	2G/	lob-	.	.	.	.	.	.
.	.	.	.	.	.	.	.	4b-\	.
*	*	*	*	*	*	*custos:f	*ij	*	*
!	!	!	!	!	!	!LO:LB:g=original	!	!	!
=42-	=42-	=42-	=42-	=42-	=42-	=42-	=42-	=42-	=42-
2F\	-ſeit	4A/	-ſin-	.	.	2f\	Dir	2a\	-wig-
.	.	4F/	-get	.	.	.	.	.	.
2r	.	4G/	ißt	.	.	2e\	Gott	1g	-ſeit
.	.	4A/	vnd	.	.	.	.	.	.
2r	.	4B-\	in	.	.	2d\	lob-	.	.
.	.	4G/	all	.	.	.	.	.	.
*	*	*custos:c	*	*	*	*	*	*custos:b	*
!	!	!LO:LB:g=original	!	!	!	!	!	!LO:LB:g=original	!
=43-	=43-	=43-	=43-	=43-	=43-	=43-	=43-	=43-	=43-
4E\	deß	1c	E-	.	.	4c/	-ſin-	0.r	.
4E\	ſich	.	.	.	.	4c/	-get	.	.
2F\	frewt	.	.	.	.	2.d\	ist	.	.
4G\	dei-	4Bn\	-wig-	.	.	.	.	.	.
*	*	*	*	*	*	*	*Xij	*	*
4G\	-ne	4B\	-ſeit	.	.	4g\	vnd	.	.
=44-	=44-	=44-	=44-	=44-	=44-	=44-	=44-	=44-	=44-
4A\	Chri-	4c\	ißt	.	.	4e\	E-	.	.
4G\	.	4B-y\	vnd	.	.	8f\	.	.	.
.	.	.	.	.	.	8g\	.	.	.
4F\	.	4A/	in	.	.	4a\	.	.	.
4E\	.	8B-\	all	.	.	4g\	.	.	.
.	.	8c\	.	.	.	.	.	.	.
4D/	.	2.d\	.	.	.	4f\	.	.	.
4C/	.	.	.	.	.	8g\	.	.	.
.	.	.	.	.	.	8a\	.	.	.
=45-	=45-	=45-	=45-	=45-	=45-	=45-	=45-	=45-	=45-
2BB-/	.	.	.	2d\	vnd	1g	.	1.r	.
.	.	4G/	E-	.	.	.	.	.	.
2C/	.	1A	-wig-	2c\	dir	.	.	.	.
2D/	-ſten-	.	.	2A/	lob-	2f#X\	-wig-	.	.
*custos:GG	*	*	*	*	*	*	*	*	*
!LO:LB:g=original	!	!	!	!	!	!	!	!	!
=46-	=46-	=46-	=46-	=46-	=46-	=46-	=46-	=46-	=46-
2GG/	-heit	2G/	-ſeit	4B-y\	-ſin-	2g\	-ſeit	2b-\	dir
.	.	.	.	4G/	-get	.	.	.	.
2r	.	2r	.	4A/	ißt	2fny\	dir	2a\	GOtt
.	.	.	.	4B-\	vnd	.	.	.	.
2r	.	2r	.	4c\	in	2e\	lob-	2g/	lob-
.	.	.	.	4G/	all	.	.	.	.
*	*	*	*	*custos:B-	*	*custos:d	*	*	*
!	!	!	!	!LO:LB:g=original	!	!LO:LB:g=original	!	!	!
=47-	=47-	=47-	=47-	=47-	=47-	=47-	=47-	=47-	=47-
0.r	.	0.r	.	2.B-\	E-	4d\	.	4f/	-ſin-
.	.	.	.	.	.	4c/	-ſin-	4e/	-get
.	.	.	.	.	.	4d\	.	4f/	ißt
.	.	.	.	8A/	.	4e\	.	4g/	vnd
.	.	.	.	8G/	.	.	.	.	.
.	.	.	.	4F/	.	4f\	.	4a\	in
.	.	.	.	4G/	.	8e\	.	4b-\	E-
.	.	.	.	.	.	8d\	.	.	.
=48-	=48-	=48-	=48-	=48-	=48-	=48-	=48-	=48-	=48-
.	.	.	.	4A/	.	4c/	.	4cc\	.
.	.	.	.	4B-\	.	4d\	.	8b-\	.
.	.	.	.	.	.	.	.	8a\	.
.	.	.	.	4c\	.	4e\	.	2.g/	.
.	.	.	.	8B-\	.	8d\	.	.	.
.	.	.	.	8A/	.	8c/	.	.	.
.	.	.	.	4G/	.	2d\	.	.	.
.	.	.	.	8F/	.	.	.	4a\	.
.	.	.	.	8E/	.	.	.	.	.
=49-	=49-	=49-	=49-	=49-	=49-	=49-	=49-	=49-	=49-
1.r	.	1.r	.	2D/	.	2d\	-get	1b-	.
.	.	.	.	2E-X/	.	1c	dir	.	.
.	.	.	.	2F/	-wig-	.	.	2a\	-wig-
=50-	=50-	=50-	=50-	=50-	=50-	=50-	=50-	=50-	=50-
2B-\	dir	2d\	dir	2B-\	-ſeit	2d\	Gott	2b-\	-ſeit
2A\	Gott	2c\	Gott	2r	.	2r	.	2r	.
2G\	lob-	2B-\	lob-	2r	.	2r	.	2r	.
=51-	=51-	=51-	=51-	=51-	=51-	=51-	=51-	=51-	=51-
*	*	*	*	*	*ij	*	*	*	*
4F\	-ſin-	4A/	-ſin-	2d\	vnd	0.r	.	1.r	.
4D/	-get	4G/	-get	.	.	.	.	.	.
4E\	ißt	4G/	ißt	2c\	dir	.	.	.	.
4F\	v(nd)	4A/	vn(d)	.	.	.	.	.	.
4G\	in	4B-\	in	2B-\	lob-	.	.	.	.
4G\	all	4c\	all	.	.	.	.	.	.
*	*	*custos:d	*	*	*	*	*	*custos:g	*
!	!	!LO:LB:g=original	!	!	!	!	!	!LO:LB:g=original	!
=52-	=52-	=52-	=52-	=52-	=52-	=52-	=52-	=52-	=52-
1G	e-	4d\	E-	2B-\	-ſin-	.	.	2g/	dir
.	.	4d\	-wig-	.	.	.	.	.	.
.	.	2c\	-ſeit	2.A/	-get	.	.	2cc\	GOtt
!LO:TX:b:t=P:problem:# below	!	!	!	!	!	!	!	!	!
2F#X\	-wig-	2r	.	.	.	.	.	2a\	lob-
.	.	.	.	4A/	ißt	.	.	.	.
*	*	*	*	*custos:G	*	*	*	*	*
!	!	!	!	!LO:LB:g=original	!	!	!	!	!
=53-	=53-	=53-	=53-	=53-	=53-	=53-	=53-	=53-	=53-
2G\	-ſeit	0.r	.	4G/	vnd	1.r	.	4b-\	-ſin-
.	.	.	.	4Eny/	in	.	.	4g/	-get
2r	.	.	.	4F/	all	.	.	4a\	ißt
.	.	.	.	4G/	E-	.	.	4b-\	vnd
2r	.	.	.	4.A/	.	.	.	4cc\	in
.	.	.	.	.	.	.	.	4g/	E-
.	.	.	.	8G/	.	.	.	.	.
=54-	=54-	=54-	=54-	=54-	=54-	=54-	=54-	=54-	=54-
!	!	!	!	!	!	!LO:N:vis=4	!	!	!
1.r	.	.	.	4F/	.	2f\	dir	1cc	.
.	.	.	.	4F/	.	.	.	.	.
.	.	.	.	1G	-wig-	2e\	Gott	.	.
!	!	!	!	!	!	!	!	!LO:TX:b:t=P:problem:# below	!
!	!	!	!	!	!	!	!	!LO:N:acc=#	!
.	.	.	.	.	.	2d\	lob-	2bn\	-wig-
=55-	=55-	=55-	=55-	=55-	=55-	=55-	=55-	=55-	=55-
*	*ij	*	*ij	*	*	*	*	*	*
2Fny\	dir	2A/	in	2A/	-ſeit	4.c/	-ſin-	2cc\	-ſeit
.	.	.	.	.	.	8d\	.	.	.
2E\	Gott	2G/	all	2r	.	4e\	.	2r	.
.	.	.	.	.	.	4c/	.	.	.
2D/	lob-	2F/	E-	2r	.	4d\	.	2r	.
.	.	.	.	.	.	4f\	.	.	.
*	*	*	*	*	*	*custos:e	*	*	*
!	!	!	!	!	!	!LO:LB:g=original	!	!	!
=56-	=56-	=56-	=56-	=56-	=56-	=56-	=56-	=56-	=56-
*	*	*	*	*	*	*	*	*	*ij
4C/	-ſin-	4G/	-wig-	4r	.	2e\	.	2cc\	dir
4AA/	-get	4C/	-ſeit	4A/	vnd	.	.	.	.
*	*	*	*Xij	*	*	*	*	*	*
4BB-/	ißt	4D/	ißt	2G/	dir	2d\	-get	2b-y\	GOtt
4C/	v(nd)	4E/	vnd	.	.	.	.	.	.
4D/	in	4F/	in	2F/	lob-	2r	.	2a\	lob-
4AA/	all	4C/	E-	.	.	.	.	.	.
=57-	=57-	=57-	=57-	=57-	=57-	=57-	=57-	=57-	=57-
0.C	e-	2E/	-wig-	4G/	-ſin-	2r	.	4g/	-ſin-
.	.	.	.	4C/	-get	.	.	4e/	-get
.	.	2C/	-ſeit.	4E/	ißt	4r	.	4g/	ißt
.	.	.	.	4F/	vnd	4f\	ißt	4a\	vnd
.	.	4r	.	4G/	in	4.e\	vnd	4g/	in
.	.	4c\	ißt	4A/	all	.	.	4f/	E-
.	.	.	.	.	.	8d\	in	.	.
=58-	=58-	=58-	=58-	=58-	=58-	=58-	=58-	=58-	=58-
.	-wig-	4B-\	vnd	4G/	E-	4e\	E-	1.g	-wig-
.	.	4A/	in	8A/	.	4c/	.	.	.
.	.	.	.	8B-\	.	.	.	.	.
.	.	4G/	all	1c	-wig-	2f\	.	.	.
.	.	4F/	e-	.	.	.	.	.	.
.	.	2G/	-wig-	.	.	2e\	-wig-	.	.
=59-	=59-	=59-	=59-	=59-	=59-	=59-	=59-	=59-	=59-
00.FFl	-ſeit	00.Fl	-ſeit.	00.Al/	-ſeit.	00.fl	-ſeit.	00.al/	-ſeit
*	*Xij	*	*	*	*Xij	*	*	*	*Xij
==	==	==	==	==	==	==	==	==	==
*-	*-	*-	*-	*-	*-	*-	*-	*-	*-
!!!system-decoration: [(s1,s2,s3,s4,s5)]
!!!RDF**kern: > = above
!!!RDF**kern: < = below
!!!RDF**kern: l =terminal long
!!!ENC: Filip Voros
!!!END: 2022-10-28
!!!ENC: Natalia Wrzos
!!!END: 2022-11-20
